launcher/android/assets/skins/day/svg/mapLabCache0.svg

<svg enable-background="new 0 0 63.00 63.22" height="63.2168" viewBox="0 0 63 63.22" width="63" xmlns="http://www.w3.org/2000/svg"><g stroke-linejoin="round"><path d="m38.1419 16.8546 7.9277 8.2995 4.9549-5.5124-8.0516-7.0605z" fill="#fff" fill-rule="evenodd" stroke-width="5"/><path d="m49.4056 21.7444c2.6074 4.0434 4.1202 8.8563 4.1202 14.0216 0 14.3323-11.6464 25.9508-26.0129 25.9508s-26.01288-11.6185-26.01288-25.9508 11.64638-25.95106 26.01288-25.95106c5.0028 0 9.6757 1.40886 13.6418 3.85066m-2.1992 2.5132 9.1975-9.19748-.2478-1.85803.3716-1.92004 1.2078-1.26966 2.7251-.43347 2.6942.80518 2.1058 1.85791 2.3535 2.53943 1.4865 1.82702.6503 1.70334-.0619 1.7962-.6194 2.1986-1.889.5884-2.6942.5265-.991.1237-1.7032 1.8272-2.849 2.8181-4.3355 4.0876" fill="#fff" fill-rule="evenodd" stroke="#000" stroke-width="3"/><path d="m48.482 6.42004 1.6026 2.26075 1.7691 1.83081 2.067 1.951 2.462 1.3007 2.3806.6697" fill="none" stroke="#000" stroke-width="2"/><path d="m51.1997 31.0992c.5295-.03 1.3049-.4504 1.3422 4.5646.1032 13.8978-11.2177 25.1651-25.0555 25.1651-13.4952 0-24.49858-10.716-25.03492-24.1381 1.47458-.1021 2.94925-.2041 3.68654-.2551.7373-.0512.7373-.0512.79699.4494.05962.5005.17891 1.5015.39769 2.6226.21871 1.1211.53687 2.3623 1.11356 3.7136.57663 1.3513 1.41186 2.8128 2.55524 4.3043 1.1434 1.4916 2.595 3.0131 3.8179 4.0441 1.223 1.031 2.2173 1.5715 3.0027 1.9319.7855.3603 1.3622.5405 1.6505.6306.2884.0901.2884.0901.2088-.0701-.0795-.1601-.2386-.4804-.6562-1.0009-.4176-.5206-1.0937-1.2413-1.9189-2.2122s-1.7996-2.1921-2.6647-3.5236c-.8649-1.3314-1.6206-2.7728-2.0879-4.3343s-.6462-3.2432-.7159-4.5745c-.0696-1.3314-.0298-2.3124-.01-2.8028.02-.4906.02-.4906.6364-.5807s1.8494-.2703 4.3648-.6306c2.5156-.3604 6.3136-.9009 10.1018-1.3213s7.5664-.7207 10.1104-.9071c2.5441-.1864 3.8541-.2589 6.0414-.4191 2.1875-.1602 5.2523-.408 8.3171-.6558z" fill="#97d324" stroke-width="5"/><g stroke-width=".2"><path d="m43.84 16.3593c.9577 0 1.7342.6932 1.7342 1.5483 0 .8552-.7765 1.5483-1.7342 1.5483-.9578 0-1.7342-.6931-1.7342-1.5483 0-.8551.7764-1.5483 1.7342-1.5483z" fill="#96d224"/><path d="m38.8232 33.7321c1.5563 0 2.818 1.2756 2.818 2.8491s-1.2617 2.849-2.818 2.849c-1.5564 0-2.8181-1.2755-2.8181-2.849s1.2617-2.8491 2.8181-2.8491z" fill="#fff"/><path d="m41.3006 45.3141c1.0433 0 1.889.8041 1.889 1.7961s-.8457 1.7962-1.889 1.7962-1.889-.8042-1.889-1.7962.8457-1.7961 1.889-1.7961z" fill="#fff"/><path d="m34.9831 51.6315c1.3169 0 2.3845.9983 2.3845 2.2297 0 1.2315-1.0676 2.2296-2.3845 2.2296s-2.3845-.9981-2.3845-2.2296c0-1.2314 1.0676-2.2297 2.3845-2.2297z" fill="#fff"/><path d="m41.6413 23.8844c1.3682 0 2.4774 1.0676 2.4774 2.3845s-1.1092 2.3845-2.4774 2.3845c-1.3683 0-2.4775-1.0676-2.4775-2.3845s1.1092-2.3845 2.4775-2.3845z" fill="#96d224"/></g></g></svg>

﻿<?xml version="1.0" encoding="utf-8"?>
<!DOCTYPE svg PUBLIC "-//W3C//DTD SVG 1.1//EN" "http://www.w3.org/Graphics/SVG/1.1/DTD/svg11.dtd">
<svg xmlns="http://www.w3.org/2000/svg" xmlns:xlink="http://www.w3.org/1999/xlink" version="1.1" baseProfile="full" width="63" height="63.2168" viewBox="0 0 63.00 63.22" enable-background="new 0 0 63.00 63.22" xml:space="preserve">
	<g>
		<path fill="#FFFFFF" fill-opacity="1" fill-rule="evenodd" stroke-width="5" stroke-linejoin="round" d="M 38.1419,16.8546L 46.0696,25.1541L 51.0245,19.6417L 42.9729,12.5812L 38.1419,16.8546 Z "/>
		<path fill="#FFFFFF" fill-opacity="1" fill-rule="evenodd" stroke-width="3" stroke-linejoin="round" stroke="#000000" stroke-opacity="1" d="M 49.4056,21.7444C 52.013,25.7878 53.5258,30.6007 53.5258,35.766C 53.5258,50.0983 41.8794,61.7168 27.5129,61.7168C 13.1464,61.7168 1.50002,50.0983 1.50002,35.766C 1.50002,21.4337 13.1464,9.81494 27.5129,9.81494C 32.5157,9.81494 37.1886,11.2238 41.1547,13.6656M 38.9555,16.1788L 48.153,6.98132L 47.9052,5.12329L 48.2768,3.20325L 49.4846,1.93359L 52.2097,1.50012L 54.9039,2.3053L 57.0097,4.16321L 59.3632,6.70264L 60.8497,8.52966L 61.5,10.233L 61.4381,12.0292L 60.8187,14.2278L 58.9297,14.8162L 56.2355,15.3427L 55.2445,15.4664L 53.5413,17.2936L 50.6923,20.1117L 46.3568,24.1993"/>
		<path fill="none" stroke-width="2" stroke-linejoin="round" stroke="#000000" stroke-opacity="1" d="M 48.482,6.42004L 50.0846,8.68079L 51.8537,10.5116L 53.9207,12.4626L 56.3827,13.7633L 58.7633,14.433"/>
		<path fill="#97D324" fill-opacity="1" stroke-width="5" stroke-linejoin="round" d="M 51.1997,31.0992C 51.7292,31.0692 52.5046,30.6488 52.5419,35.6638C 52.6451,49.5616 41.3242,60.8289 27.4864,60.8289C 13.9912,60.8289 2.98782,50.1129 2.45148,36.6908C 3.92606,36.5887 5.40073,36.4867 6.13802,36.4357C 6.87532,36.3845 6.87532,36.3845 6.93501,36.8851C 6.99463,37.3856 7.11392,38.3866 7.3327,39.5077C 7.55141,40.6288 7.86957,41.87 8.44626,43.2213C 9.02289,44.5726 9.85812,46.0341 11.0015,47.5256C 12.1449,49.0172 13.5965,50.5387 14.8194,51.5697C 16.0424,52.6007 17.0367,53.1412 17.8221,53.5016C 18.6076,53.8619 19.1843,54.0421 19.4726,54.1322C 19.761,54.2223 19.761,54.2223 19.6814,54.0621C 19.6019,53.902 19.4428,53.5817 19.0252,53.0612C 18.6076,52.5406 17.9315,51.8199 17.1063,50.849C 16.2811,49.8781 15.3067,48.6569 14.4416,47.3254C 13.5767,45.994 12.821,44.5526 12.3537,42.9911C 11.8864,41.4296 11.7075,39.7479 11.6378,38.4166C 11.5682,37.0852 11.608,36.1042 11.6278,35.6138C 11.6478,35.1232 11.6478,35.1232 12.2642,35.0331C 12.8806,34.943 14.1136,34.7628 16.629,34.4025C 19.1446,34.0421 22.9426,33.5016 26.7308,33.0812C 30.519,32.6608 34.2972,32.3605 36.8412,32.1741C 39.3853,31.9877 40.6953,31.9152 42.8826,31.755C 45.0701,31.5948 48.1349,31.347 51.1997,31.0992 Z "/>
		<path fill="#96D224" fill-opacity="1" stroke-width="0.2" stroke-linejoin="round" d="M 43.84,16.3593C 44.7977,16.3593 45.5742,17.0525 45.5742,17.9076C 45.5742,18.7628 44.7977,19.4559 43.84,19.4559C 42.8822,19.4559 42.1058,18.7628 42.1058,17.9076C 42.1058,17.0525 42.8822,16.3593 43.84,16.3593 Z "/>
		<path fill="#FFFFFF" fill-opacity="1" stroke-width="0.2" stroke-linejoin="round" d="M 38.8232,33.7321C 40.3795,33.7321 41.6412,35.0077 41.6412,36.5812C 41.6412,38.1547 40.3795,39.4302 38.8232,39.4302C 37.2668,39.4302 36.0051,38.1547 36.0051,36.5812C 36.0051,35.0077 37.2668,33.7321 38.8232,33.7321 Z "/>
		<path fill="#FFFFFF" fill-opacity="1" stroke-width="0.2" stroke-linejoin="round" d="M 41.3006,45.3141C 42.3439,45.3141 43.1896,46.1182 43.1896,47.1102C 43.1896,48.1022 42.3439,48.9064 41.3006,48.9064C 40.2573,48.9064 39.4116,48.1022 39.4116,47.1102C 39.4116,46.1182 40.2573,45.3141 41.3006,45.3141 Z "/>
		<path fill="#FFFFFF" fill-opacity="1" stroke-width="0.2" stroke-linejoin="round" d="M 34.9831,51.6315C 36.3,51.6315 37.3676,52.6298 37.3676,53.8612C 37.3676,55.0927 36.3,56.0908 34.9831,56.0908C 33.6662,56.0908 32.5986,55.0927 32.5986,53.8612C 32.5986,52.6298 33.6662,51.6315 34.9831,51.6315 Z "/>
		<path fill="#96D224" fill-opacity="1" stroke-width="0.2" stroke-linejoin="round" d="M 41.6413,23.8844C 43.0095,23.8844 44.1187,24.952 44.1187,26.2689C 44.1187,27.5858 43.0095,28.6534 41.6413,28.6534C 40.273,28.6534 39.1638,27.5858 39.1638,26.2689C 39.1638,24.952 40.273,23.8844 41.6413,23.8844 Z "/>
	</g>
</svg>
